X: 4
T:Eel in the Sink
M:4/4
L:1/8
S:Gerry O'Connor, Louth (fiddle)
R:Reel
N:As played
D:Session tape - Ballaghadereen Fleadh, 1977
Z:Bernie Stocks
K:G %ie. Am 1 #
(3.e.f.e AB cde^c | ~d2BG DGBG | (3.e.f.e AB cdea|1 {a}gedB cAag :|2 {a}gedB cAce ||
(3.a.b.a ea {b}aged | cdef (3gfg ea | {b}agea {b}ageg | {a}gedB {d}BAce |
agea {b}aged | cdef g2 (3e.f.g | afge fdeg | {a}gedB {d}BAA2 ||
<end>
<start>
